X:445
T:Rocky Road to Dublin, The
R:slip jig
H:See also #6
D:Tommy Keane & Jacqueline McCarthy: The Wind among the Reeds.
D:Seamus Ennis: The Pure Drop
Z:id:hn-slipjig-50
M:9/8
K:Ador
efe d2B A3|E2A A2A Bcd|efe d2B A2c|B2G G2A Bcd|
efe d2B A3|E2A A2A Bcd|efe d2B A2c|B2G G2A Bcd||
e2a a2f g3|e2a a2A Bcd|e2a a2f g2e|d2B G2A Bcd|
e2a a2f g3|e2a a2A Bcd|efg fga g2e|d2B G2A Bcd||
